X: 1169
T: Moll Roe.
C:F. O'Neill.
B:O'Neill's Music of Ireland
N:O'Neill's - 1169
Z:Transcribed by Stephen Foy (shf@access.digex.net)
Z:abc 1.6
M:9/8
R:slipjig
K:G
D DGG GAG FGA | BGB cAB c2 c | DGG GAG FGA | BGB cAF G2 (G/F/) |
DGG GAG FGA | BGB cAB c2 (B/c/) | ded cAG FGA | BGB cAF G2 ||
|| (B/c/) | ded cAG FGA | ded cAB c2 (B/c/) | ded cAG FGA | BGB cAF G2 (B/c/) |
ded cAG FGA | ded cAB c2 (d/e/) | fed cAG FGA BGB cAF G2 ||


